icons/issue-closed-24.svg

<svg width="24" height="24" viewBox="0 0 24 24" xmlns="http://www.w3.org/2000/svg">
  <path d="M2.5 12C2.5 6.75965 6.78844 2.5 12.0927 2.5C14.9602 2.5 17.5317 3.7449 19.2897 5.71888C19.5652 6.02821 20.0393 6.05564 20.3486 5.78015C20.6579 5.50467 20.6854 5.03059 20.4099 4.72127C18.3776 2.43935 15.4035 1 12.0927 1C5.97278 1 1 5.91851 1 12C1 18.0815 5.97278 23 12.0927 23C17.496 23 22.0025 19.1678 22.9863 14.0851C23.0651 13.6784 22.7992 13.285 22.3925 13.2062C21.9859 13.1275 21.5924 13.3934 21.5137 13.8C20.6656 18.1814 16.7734 21.5 12.0927 21.5C6.78844 21.5 2.5 17.2403 2.5 12Z"/>
  <path d="M12 17C12.5523 17 13 16.5523 13 16C13 15.4477 12.5523 15 12 15C11.4477 15 11 15.4477 11 16C11 16.5523 11.4477 17 12 17Z"/>
  <path d="M12 7C12.4142 7 12.75 7.33579 12.75 7.75V12.25C12.75 12.6642 12.4142 13 12 13C11.5858 13 11.25 12.6642 11.25 12.25V7.75C11.25 7.33579 11.5858 7 12 7Z"/>
  <path d="M23.2803 7.78033C23.5732 7.48744 23.5732 7.01256 23.2803 6.71967C22.9874 6.42678 22.5126 6.42678 22.2197 6.71967L18.75 10.1893L17.2803 8.71967C16.9874 8.42678 16.5126 8.42678 16.2197 8.71967C15.9268 9.01256 15.9268 9.48744 16.2197 9.78033L18.2197 11.7803C18.5126 12.0732 18.9874 12.0732 19.2803 11.7803L23.2803 7.78033Z"/>
</svg>

<svg xmlns="http://www.w3.org/2000/svg" width="24" height="24" viewBox="0 0 24 24"><path d="M2.5 12c0-5.24 4.288-9.5 9.593-9.5a9.608 9.608 0 017.197 3.219.75.75 0 001.12-.998A11.108 11.108 0 0012.093 1C5.973 1 1 5.919 1 12s4.973 11 11.093 11c5.403 0 9.91-3.832 10.893-8.915a.75.75 0 10-1.472-.285c-.848 4.381-4.74 7.7-9.421 7.7C6.788 21.5 2.5 17.24 2.5 12z"/><path d="M12 17a1 1 0 100-2 1 1 0 000 2zm0-10a.75.75 0 01.75.75v4.5a.75.75 0 01-1.5 0v-4.5A.75.75 0 0112 7zm11.28.78a.75.75 0 00-1.06-1.06l-3.47 3.47-1.47-1.47a.75.75 0 10-1.06 1.06l2 2a.75.75 0 001.06 0l4-4z"/></svg>
